mimes/scalable/libreoffice-oasis-database.svg

<?xml version="1.0" encoding="UTF-8" standalone="no"?>
<svg
   xmlns:dc="http://purl.org/dc/elements/1.1/"
   xmlns:cc="http://creativecommons.org/ns#"
   xmlns:rdf="http://www.w3.org/1999/02/22-rdf-syntax-ns#"
   xmlns:svg="http://www.w3.org/2000/svg"
   xmlns="http://www.w3.org/2000/svg"
   xmlns:sodipodi="http://sodipodi.sourceforge.net/DTD/sodipodi-0.dtd"
   xmlns:inkscape="http://www.inkscape.org/namespaces/inkscape"
   width="48"
   height="48"
   viewBox="0 0 12.7 12.7"
   version="1.1"
   id="svg4"
   sodipodi:docname="libreoffice-oasis-database.svg"
   inkscape:version="0.92.3 (2405546, 2018-03-11)">
  <metadata
     id="metadata10">
    <rdf:RDF>
      <cc:Work
         rdf:about="">
        <dc:format>image/svg+xml</dc:format>
        <dc:type
           rdf:resource="http://purl.org/dc/dcmitype/StillImage" />
        <dc:title></dc:title>
      </cc:Work>
    </rdf:RDF>
  </metadata>
  <defs
     id="defs8" />
  <sodipodi:namedview
     pagecolor="#ffffff"
     bordercolor="#666666"
     borderopacity="1"
     objecttolerance="10"
     gridtolerance="10"
     guidetolerance="10"
     inkscape:pageopacity="0"
     inkscape:pageshadow="2"
     inkscape:window-width="1366"
     inkscape:window-height="715"
     id="namedview6"
     showgrid="false"
     showguides="true"
     inkscape:guide-bbox="true"
     inkscape:snap-global="true"
     inkscape:zoom="10.979167"
     inkscape:cx="23.999999"
     inkscape:cy="23.999999"
     inkscape:window-x="0"
     inkscape:window-y="27"
     inkscape:window-maximized="1"
     inkscape:current-layer="svg4" />
  <path
     inkscape:connector-curvature="0"
     style="opacity:1;fill:#d35f8d;fill-opacity:1;fill-rule:nonzero;stroke:none;stroke-width:0.50711805;stroke-linecap:round;stroke-linejoin:bevel;stroke-miterlimit:4;stroke-dasharray:none;stroke-opacity:1"
     d="m 7.4452731,0.01688326 c -0.040983,0 -0.078161,0.0127642 -0.1049033,0.0330729 -0.025929,0.0196897 -0.041407,0.047003 -0.042375,0.0769979 0.1425477,0.0568061 0.2716984,0.13629486 0.3782716,0.24236248 0.1894734,0.18857428 0.312955,0.44366748 0.3302125,0.73018816 h 0.00672 v 0.068213 0.1441772 0.1369425 0.1927531 c 0,0.2812905 0.2266883,0.5079794 0.5079795,0.5079794 h 0.1183391 l -5.291e-4,0.00568 h 1.6924026 c 0.329951,0 0.613684,0.1491999 0.819072,0.3731038 V 1.1020885 0.5248626 c 0,-0.14064565 -0.05654,-0.26789289 -0.148312,-0.35966798 -0.09178,-0.0917751 -0.219024,-0.14831136 -0.35967,-0.14831136 H 9.1423149 7.8824437 Z"
     id="path965" />
  <path
     style="opacity:1;fill:#333333;fill-opacity:1;fill-rule:nonzero;stroke:none;stroke-width:0.50711805;stroke-linecap:round;stroke-linejoin:bevel;stroke-miterlimit:4;stroke-dasharray:none;stroke-opacity:1"
     d="m 2.9460732,0.60831414 c -0.6285519,0 -1.134298,0.50626306 -1.134298,1.13481456 v 9.9012043 c 0,0.628551 0.5057461,1.134814 1.134298,1.134814 h 4.2855261 2.522327 c 0.6285527,0 1.1342987,-0.506263 1.1342987,-1.134814 V 3.7290541 h -0.01292 C 10.810197,3.1632601 10.337709,2.7249809 9.7539263,2.7249809 h -1.692403 v 0 l -0.11781,-0.00568 C 7.6627483,2.7057546 7.4357343,2.4926122 7.4357343,2.2113215 V 2.018564 1.8816215 1.7374442 1.6692313 h -0.0067 C 7.3941823,1.0908651 6.9321933,0.6367337 6.3510473,0.61089793 l -5.29e-4,-0.002585 h -0.02015 z"
     id="path833"
     inkscape:connector-curvature="0" />
  <path
     style="opacity:1;fill:#cccccc;fill-opacity:1;fill-rule:nonzero;stroke:none;stroke-width:0.50711805;stroke-linecap:round;stroke-linejoin:bevel;stroke-miterlimit:4;stroke-dasharray:none;stroke-opacity:1"
     d="m 6.4269983,1.1354138 c 0.263277,0.019482 0.470254,0.2359637 0.470255,0.504362 v 0.2563151 0.125057 0.092501 c 0,0.5757933 0.427721,1.0388807 0.982369,1.1136271 v 0 l 1.962134,0.026872 c 0.2812647,0.00385 0.5079787,0.2266886 0.5079797,0.5079793 v 2.0835938 5.8962809 c 0,0.281291 -0.226688,0.50798 -0.5079797,0.50798 H 7.2315993 2.8582236 c -0.281291,0 -0.50798,-0.226689 -0.50798,-0.50798 V 1.6454602 c 0,-0.2812907 0.226689,-0.5079794 0.50798,-0.5079794 h 3.5692907 z"
     id="path901-5"
     inkscape:connector-curvature="0" />
  <path
     inkscape:connector-curvature="0"
     style="color:#4d4d4d;opacity:1;color-interpolation:sRGB;color-interpolation-filters:linearRGB;fill:#d35f8d;stroke-width:0.26458332;color-rendering:auto;image-rendering:auto;shape-rendering:auto;text-rendering:auto"
     d="m 6.3499999,5.0270836 a 2.9104167,0.79375 0 0 0 -2.9104167,0.79375 v 4.2333334 a 2.9104167,0.79375 0 0 0 2.9104167,0.79375 2.9104167,0.79375 0 0 0 2.9104166,-0.79375 V 5.8208336 a 2.9104167,0.79375 0 0 0 -2.9104166,-0.79375 m 0,0.2645835 A 2.6458333,0.52916667 0 0 1 8.9958335,5.8208336 2.6458333,0.52916667 0 0 1 6.3499999,6.3500003 2.6458333,0.52916667 0 0 1 3.7041665,5.8208336 2.6458333,0.52916667 0 0 1 6.3499999,5.2916671 M 3.7041665,6.1494964 A 2.9104167,0.79375 0 0 0 6.3499999,6.6145836 2.9104167,0.79375 0 0 0 8.9958335,6.1494964 V 7.1438005 A 2.6458333,0.52916667 0 0 1 6.3499999,7.6729672 2.6458333,0.52916667 0 0 1 3.7041665,7.1438005 Z m 0,1.3229166 A 2.9104167,0.79375 0 0 0 6.3499999,7.9375003 2.9104167,0.79375 0 0 0 8.9958335,7.472413 V 8.7313005 A 2.6458333,0.52916667 0 0 1 6.3499999,9.2604672 2.6458333,0.52916667 0 0 1 3.7041665,8.7313005 Z m 0,1.5875 A 2.9104167,0.79375 0 0 0 6.3499999,9.5250003 2.9104167,0.79375 0 0 0 8.9958335,9.059913 v 0.994304 A 2.6458333,0.52916667 0 0 1 6.3499999,10.583384 2.6458333,0.52916667 0 0 1 3.7041665,10.054217 V 9.7896339 Z"
     id="path29" />
</svg>

<?xml version="1.0" encoding="UTF-8" standalone="no"?><svg xmlns:dc="http://purl.org/dc/elements/1.1/" xmlns:cc="http://creativecommons.org/ns#" xmlns:rdf="http://www.w3.org/1999/02/22-rdf-syntax-ns#" xmlns="http://www.w3.org/2000/svg" width="48" height="48" viewBox="0 0 12.7 12.7"><metadata><rdf:RDF><cc:Work><dc:format>image/svg+xml</dc:format><dc:type rdf:resource="http://purl.org/dc/dcmitype/StillImage"/><dc:title/></cc:Work></rdf:RDF></metadata><path d="M7.45.02a.17.17 0 0 0-.11.03.1.1 0 0 0-.04.08 1.12 1.12 0 0 1 .7.97h.01v.55c0 .27.23.5.51.5H10.34c.32 0 .6.15.81.38V.52a.5.5 0 0 0-.5-.5H7.87z" fill="#d35f8d"/><path d="M2.95.6c-.63 0-1.14.51-1.14 1.14v9.9c0 .63.5 1.14 1.14 1.14H9.75c.63 0 1.14-.5 1.14-1.14V3.73h-.01c-.07-.57-.54-1-1.13-1H8.06l-.12-.01a.52.52 0 0 1-.5-.5v-.55h-.01A1.12 1.12 0 0 0 6.35.6h-.02z" fill="#333"/><path d="M6.43 1.14a.5.5 0 0 1 .47.5v.48c0 .57.42 1.03.98 1.1l1.96.03c.28 0 .51.23.51.51v7.99a.5.5 0 0 1-.5.5H2.85a.5.5 0 0 1-.51-.5V1.64c0-.29.23-.51.5-.51h3.58z" fill="#ccc"/><path d="M6.35 5.03a2.91.8 0 0 0-2.91.8v4.22a2.91.8 0 0 0 2.91.8 2.91.8 0 0 0 2.91-.8V5.82a2.91.8 0 0 0-2.91-.8m0 .27A2.65.53 0 0 1 9 5.82a2.65.53 0 0 1-2.65.53 2.65.53 0 0 1-2.65-.53 2.65.53 0 0 1 2.65-.53m-2.65.86a2.91.8 0 0 0 2.65.46A2.91.8 0 0 0 9 6.15v1a2.65.53 0 0 1-2.65.52 2.65.53 0 0 1-2.65-.53zm0 1.32a2.91.8 0 0 0 2.65.47A2.91.8 0 0 0 9 7.47v1.26a2.65.53 0 0 1-2.65.53 2.65.53 0 0 1-2.65-.53zm0 1.59a2.91.8 0 0 0 2.65.47A2.91.8 0 0 0 9 9.06v1a2.65.53 0 0 1-2.65.52 2.65.53 0 0 1-2.65-.53V9.8z" color="#4d4d4d" fill="#d35f8d"/></svg>
